X:1
T:The Secret Place of Prayer
T:The Secret Place of Prayer
T:Benjamin Franklin Butts
T:Abe Vennema, 1900
T:Public Domain Courtesy of the Cyber Hymnal™
T:Public Domain Courtesy of the Cyber Hymnal™
C:Benjamin Franklin Butts
Z:Public Domain
Z:Courtesy of the Cyber Hymnal™
%%score ( 1 2 ) 3
L:1/8
Q:1/4=85
M:4/4
K:G
V:1 treble 
V:2 treble 
V:3 bass 
V:1
 [DG] | [DB][DG][DF][DA] [DG] [GB]2 [GB]/[GB]/ | [Ec][Ec][EG][Ec] [GB]3 [GB]/[GB]/ | %3
w: 1.~A-|lone with God, my Fa- ther, in the|se- cret place of prayer, Not a|
w: 2.~A-|lone with Christ, my Sav- ior, in the|de- sert- place a- part, There my|
w: 3.~A-|lone with God, the Spir- it, bless- èd|Par- a- clete di- vine, Who in|
 [FA][EG][DF][EG] [FA][Fd][Ge][G^c] | [Fd]7 [F=c]/[Fc]/ | [GB][DG][DF][DA] [DG] [GB]2 [GB]/[GB]/ | %6
w: thought, or wish, or pur- pose I with-|hold; I com-|mune with Him most free- ly, and my|
w: wea- ry soul finds rest from cum- b’ring|care, And I|feel a twi- light still- ness fall up-|
w: my be- half for- ev- er in- ter-|cedes; It is|He who keeps me walk- ing, mak- ing|
 [Ec][Ec][EG][Ec] [GB]3 [Gd] | [Gd][Ge][Gd][GB] [FA][Ac][GB][FA] | G6 ||"^Refrain" D[DG] | %10
w: in- most soul lay bare, And|lin- ger till I feel His love en-|fold.||
w: on my trou- bled heart, As|Je- sus gent- ly whis- pers to me|there.|’Tis a|
w: Je- sus’ foot- steps mine, With|all- suf- fi- cient grace to meet my|needs.||
 [GB]2 [GB]2 [GB]2 [Gc]2 | [GB][FA][FA][^E^G] [FA]2 [FA][DF] | [FA][FA][FA][FA] [FA][Fc][GB][FA] | %13
w: |||
w: Beth- el sweet, wher-|ev- er thus we meet, ’Tis the|ve- ry gate of Heav- en to my|
w: |||
 [GB]6 D[DG] | [GB]2 [GB]2 [GB]2 [=Fd][Fd] | [Ed][Ec][Ec][Ec] [CE]2 [EA]2 | %16
w: |||
w: soul; Oh, I|love to greet, at the|gold- en mer- cy seat, The|
w: |||
 [DG][DF][DF][DE] D[Dc][DB][CA] | [B,G]6 z |] %18
w: ||
w: face of Him who made my spir- it|whole.|
w: ||
V:2
 x | x8 | x8 | x8 | x8 | x8 | x8 | x8 | G6 || D x | x8 | x8 | x8 | x6 D x | x8 | x8 | x4 D x3 | %17
 x7 |] %18
V:3
 [G,B,] | [G,B,][G,B,][D,A,][D,F,] [G,B,] [G,D]2 [G,D]/[G,D]/ | %2
 [C,C][C,G,][C,C][C,C] [G,D]3 [G,D]/[G,D]/ | [D,D][D,A,][D,A,][D,A,] [D,D][D,D][A,^C][A,E] | %4
 [D,D]7 [D,D]/[D,D]/ | [G,D][G,B,][D,A,][D,F,] [G,B,] [G,D]2 [G,D]/[G,D]/ | %6
 [C,C][C,G,][C,C][C,C] [G,D]3 [G,B,] | [G,B,][G,C][G,B,][G,D] [D,D][D,D][D,D][D,C] | [G,B,]6 || %9
 [G,B,][G,B,] | [G,D]2 [G,D]2 [G,D]2 [G,E]2 | [D,D][D,D][D,D][D,D] [D,D]2 [D,A,][D,A,] | %12
 [D,D][D,D][D,D][D,D] [D,D][D,D][D,D][D,D] | [G,D]6 [G,B,][G,B,] | %14
 [G,D]2 [G,D]2 [G,D]2 [G,B,][G,B,] | [C,C][C,G,][C,G,][C,G,] [C,G,]2 [C,C]2 | %16
 [D,B,][D,B,][D,B,][D,G,] [D,F,][D,A,][D,G,][D,F,] | [G,,G,]6 z |] %18

